blockchains/ethereum/assets/0x408e41876cCCDC0F92210600ef50372656052a38/logo.svg

<svg fill="none" height="250" viewBox="0 0 250 250" width="250" xmlns="http://www.w3.org/2000/svg" xmlns:xlink="http://www.w3.org/1999/xlink"><linearGradient id="a" gradientUnits="userSpaceOnUse" x1="0" x2="250" y1="125" y2="125"><stop offset="0" stop-color="#001c3a"/><stop offset=".6" stop-color="#001e3d"/><stop offset=".7" stop-color="#001f3f"/><stop offset="1" stop-color="#002042"/></linearGradient><clipPath id="b"><path d="m0 0h250v250h-250z"/></clipPath><g clip-path="url(#b)"><path d="m125 250c69.036 0 125-55.964 125-125 0-69.0356-55.964-125-125-125-69.0356 0-125 55.9644-125 125 0 69.036 55.9644 125 125 125z" fill="url(#a)"/><path d="m70.3125 72.6562 13.2813-7.0312 1.5624 3.125 48.4378-28.125-3.125-2.3437-3.906-2.3438-1.563-.7813-79.6875 46.0938v1.5625l22.6563-12.5zm0 29.6878 38.2815-22.6565 1.562 3.125 49.219-28.125-3.906-2.3438-3.906-1.5625-1.563-.7812-104.6875 60.156v1.563l22.6563-12.5002zm0 14.062 50.7815-28.906 1.562 2.3438 49.219-28.125-3.906-1.5626-3.906-2.3437-1.563-.7812-117.1875 67.1877v2.344l22.6563-13.282zm0 14.063 63.2815-35.9377 1.562 2.3437 49.219-27.3438-3.906-2.3437-3.906-2.3437-1.563-.7813-129.6875 74.9995v1.563l22.6563-12.5zm0 14.843 75.7815-43.75 1.562 3.126 49.219-28.1255-3.906-2.3437-3.125-1.5626-2.344-1.5624-142.1875 82.0312v2.344l22.6563-13.281zm131.2505-65.6245-1.563-1.5625-154.6875 89.844v1.562l22.6563-12.5 2.3437 3.125 75.7815-44.531 1.562 3.125 57.032-32.0312v-5.4688zm-146.0943 99.2185 12.5001-7.812 1.5624 3.125 76.5628-43.75 1.562 3.125 57.032-32.813v-10.156l-151.563 86.719zm90.6253-33.594 1.562 3.126 57.032-33.594v-10.156l-139.063 80.468 2.3438.782 12.5-7.813 2.3437 3.125zm-65.6252 47.657 13.2812-7.031 1.5625 3.124 50.7815-29.687 1.562 3.125 57.032-32.812v-10.157l-126.563 72.657zm12.5 7.031 13.2812-7.031 1.563 3.125 38.281-21.875 1.562 3.125 57.032-32.813v-10.937l-114.063 65.625zm10.1562 6.25 2.344 1.562 13.281-7.812 1.563 3.125 25.781-14.844 1.562 3.125 57.032-32.812v-10.156zm14.844 8.594 12.5-7.813 2.344 3.125 13.281-7.031 1.562 3.125 57.032-32.812v-10.938l-88.282 51.562zm28.906-167.1878-3.906-2.3437-3.906-1.5625-1.563-1.5625-92.1875 53.125v2.3437l22.6563-13.2812 2.3437 3.125 25.7813-14.8438 1.5625 3.125z" fill="#fff"/></g></svg>

<svg width="250" height="250" viewBox="0 0 250 250" fill="none" xmlns="http://www.w3.org/2000/svg">
<g clip-path="url(#clip0_31_1058)">
<path d="M125 250C194.036 250 250 194.036 250 125C250 55.9644 194.036 0 125 0C55.9644 0 0 55.9644 0 125C0 194.036 55.9644 250 125 250Z" fill="url(#paint0_linear_31_1058)"/>
<path d="M70.3125 72.6562L83.5938 65.625L85.1562 68.75L133.594 40.625L130.469 38.2813L126.563 35.9375L125 35.1562L45.3125 81.25V82.8125L67.9688 70.3125L70.3125 72.6562ZM70.3125 102.344L108.594 79.6875L110.156 82.8125L159.375 54.6875L155.469 52.3437L151.563 50.7812L150 50L45.3125 110.156V111.719L67.9688 99.2188L70.3125 102.344ZM70.3125 116.406L121.094 87.5L122.656 89.8438L171.875 61.7188L167.969 60.1562L164.063 57.8125L162.5 57.0313L45.3125 124.219V126.563L67.9688 113.281L70.3125 116.406ZM70.3125 130.469L133.594 94.5313L135.156 96.875L184.375 69.5312L180.469 67.1875L176.563 64.8438L175 64.0625L45.3125 139.062V140.625L67.9688 128.125L70.3125 130.469ZM70.3125 145.312L146.094 101.562L147.656 104.688L196.875 76.5625L192.969 74.2188L189.844 72.6562L187.5 71.0938L45.3125 153.125V155.469L67.9688 142.188L70.3125 145.312ZM201.563 79.6875L200 78.125L45.3125 167.969V169.531L67.9688 157.031L70.3125 160.156L146.094 115.625L147.656 118.75L204.688 86.7188V81.25L201.563 79.6875ZM55.4687 178.906L67.9688 171.094L69.5312 174.219L146.094 130.469L147.656 133.594L204.688 100.781V90.625L53.125 177.344L55.4687 178.906ZM146.094 145.312L147.656 148.438L204.688 114.844V104.688L65.625 185.156L67.9688 185.938L80.4688 178.125L82.8125 181.25L146.094 145.312ZM80.4688 192.969L93.75 185.938L95.3125 189.062L146.094 159.375L147.656 162.5L204.688 129.688V119.531L78.125 192.188L80.4688 192.969ZM92.9688 200L106.25 192.969L107.813 196.094L146.094 174.219L147.656 177.344L204.688 144.531V133.594L90.625 199.219L92.9688 200ZM103.125 206.25L105.469 207.812L118.75 200L120.313 203.125L146.094 188.281L147.656 191.406L204.688 158.594V148.438L103.125 206.25ZM117.969 214.844L130.469 207.031L132.813 210.156L146.094 203.125L147.656 206.25L204.688 173.438V162.5L116.406 214.062L117.969 214.844ZM146.875 47.6562L142.969 45.3125L139.063 43.75L137.5 42.1875L45.3125 95.3125V97.6562L67.9688 84.375L70.3125 87.5L96.0938 72.6562L97.6563 75.7812L146.875 47.6562Z" fill="white"/>
</g>
<defs>
<linearGradient id="paint0_linear_31_1058" x1="0" y1="125" x2="250" y2="125" gradientUnits="userSpaceOnUse">
<stop stop-color="#001C3A"/>
<stop offset="0.6" stop-color="#001E3D"/>
<stop offset="0.7" stop-color="#001F3F"/>
<stop offset="1" stop-color="#002042"/>
</linearGradient>
<clipPath id="clip0_31_1058">
<rect width="250" height="250" fill="white"/>
</clipPath>
</defs>
</svg>
